X:1
T:B minor      Abraham Wood, 1793
T:Isaac Watts, 1719 Psalm 13 Part 2 (86. 86.) and Psalm 12 (88. 88.)
T:Hanley
T:Transcribed from The Columbian Harmony, 1793.
%%score [ 1 2 3 4 ]
L:1/8
Q:1/4=90
M:4/4
K:D
V:1 treble nm="Tr." snm="Tr."
V:2 treble nm="C." snm="C."
V:3 treble-8 nm="T." snm="T."
V:4 bass nm="B." snm="B."
V:1
 z4"^1. How  long  wilt thou conceal thy face? My God, how long  de – lay?  When shall I feel _____ those heav'nly rays  That chase my fears  a – way?" B>A Bc | %1
 d3 c B2 ^A2 | B6 ^A2 | B2 ed c2 c2 | d8 | c4 B2 ^A2 | (B4 e2) e>d | c2 c2 f2 f2 | e2 ed c4- | %9
 c6 c2 | B8 |:[M:6/8][Q:1/4=80] z4 z B | %12
"^1. Lord,  if      thou  dost   not  soon   ap  –  pear,   Vir – tue and truth will  fly _____  a  –  way;        A   faith – ful   man  among  us  here,    A" B2 c d>ef | %13
 f2 c def | d2 c B2 c | c3 c3 | c3 z2 z | z6 | z4 z F | %19
"^1. faith – ful   man  among  us  here,  A  faith – ful   man  a    –  mong ____ us    here       Will  not be,  if      thou    de – lay. _____" BAB cBA | %20
 edc d2 c | def d2 c | c3- c2 c | B2 A GAB | ABc B3- | B6 :| %26
V:2
 z4"^2. Lord, when  in–i–qui–ties  a–bound,  And  blas–phe–my grows bold;  When faith is  hard    –   ly   to be found,  And   love  is    wax – ing   cold;" F2 FF | %1
 F3 F F2 E2 | D6 E2 | F2 G2 F2 F2 | F8 | F4 D2 F2 | (F3 G A2) A2 | A2 A2 F2 F2 | G2 G2 F4- | %9
 F4 F4 | F8 |:[M:6/8] z4 z F | %12
"^2.  But   lips    that  with   de  –  ceit    a – bound  Shall  not maintain  their tri    –    umph   long;     The  God  of  vengeance  will  confound,  The" F2 F F2 F | %13
 A2 A/G/ F2 F | F2 F F2 G | A3 A3 | A3 z2 z | z6 | z6 | %19
"^2. God  of  vengeance  will  confound,    The   God    of   vengeance  will ____ con– found   The loose and  blaspheming  tongue." z6 | %20
 z4 z F | F2 F F2 G | A3- A2 A | F2 A BAG | F2 F F3- | F6 :| %26
V:3
 z4"^3. Be thou my sun, and thou my shield,  My  soul  in   safe  –ty  keep;  Make haste, be – fore mine eyes are sealed  In  death's e – ter – nal  sleep." d>c BA | %1
 B3 c d2 e2 | f6 e2 | d2 B>d cB AG | F8 | ^A4 B2 c2 | (dcBd c2) A2 | e2 c2 d2 dc | B2 AG F4- | %9
 F6 A2 | B8 |:[M:6/8] z4 z B | %12
"^3. The  Lord, who sees  the    poor  oppressed,    And hears th' oppressor's haugh  –  ty  strain,      Will  rise   to   give  his  children  rest,  Will" Bdc BAB | %13
 cfe d2 c | B2 c d2 e | (f>gf/e/) f3 | f3 z2 c | dcB cBA | BAG F2 z | %19
"^3. rise   to   give  his   children   rest,   Will   rise    to   give   his    chil    –    dren  rest,     Nor  shall  trust his word  in  vain. ____" z6 | %20
 z4 z A | B2 c d2 e | f3- f2 e | d2 c Bcd | cBA B3- | B6 :| %26
V:4
 z4 B,,>C, D,C, | B,,3 F, D,2 C,2 | B,,6 C,2 | D,2 E,2 F,2 F,,2 | B,,8 | F,4 G,2 F,2 | %6
 (B,4 A,2) A,2 | A,2 A,2 D,2 D,2 | E,2 E,2 F,4- | F,4 F,,4 | B,,8 |:[M:6/8] z4 z B,, | %12
 B,,2 F,, B,,2 B,, | F,2 A, B,2 F, | B,,2 F,/E,/ D,2 C, | F,3 F,3 | F,3 z2 z | z6 | z6 | z6 | %20
 z4 z F, | %21
 B,,2"^_____________________________________________\nEdited by B. C. Johnston, 2017\n   1. Measure 16, All parts: Ties on the same note removed..\n   2. Measure 26, All parts: Consolidated into one note.\n   3. These words substituted for original words \n        (Isaac Watts, from Horae Lyricae )." F, B,2 C | %22
 F,3- F,2 A, | B,2 F, G,F,E, | F,2 F, B,,3- | B,,6 :| %26

